!!!COA: Josquin des Prez
!!!CDT: ~1450-1521/08/27
!!!COM: Ghiselin
!!!OTL@@FRA: Fors seulement III
!!!AGN: Chanson
!!!SCT: NJE 28.40 (fake)
!!!SCA: New Josquin Edition 28.40 (fake)
!!!voices: 4
**kern	**kern	**kern	**kern
*staff4	*staff3	*staff2	*staff1
*Ivox	*Ivox	*Ivox	*Ivox
*I"Bassus	*I"Tenor	*I"Altus	*I"Superius
*I'B	*I'T	*I'A	*I'S
*clefF4	*clefGv2	*clefGv2	*clefG2
*k[]	*k[]	*k[]	*k[]
*M2/1	*M2/1	*M2/1	*M2/1
*met(C|)	*met(C|)	*met(C|)	*met(C|)
=1-	=1-	=1-	=1-
!	!	!LO:TX:Z=16:X=-40:t=Altus by Johannes Ockeghem (CT of "Fors seulement" up a fifth)	!
0r	1A	0e	0r
.	1A	.	.
=2	=2	=2	=2
0r	1A	1e	0r
.	1c	1e	.
=3	=3	=3	=3
0r	1r	0g	0r
.	1c	.	.
=4	=4	=4	=4
0r	1e	1r	0r
.	1e	1g	.
=5	=5	=5	=5
0r	2d\	1b	0r
.	2B\	.	.
.	[1d	1b	.
=6	=6	=6	=6
0r	2d\]	1.a	0r
.	4c\	.	.
.	4B\	.	.
.	[1A	.	.
.	.	4g\	.
.	.	4f\	.
=7	=7	=7	=7
0r	2A/]	0e	0r
.	4G/	.	.
.	4F/	.	.
.	2G/	.	.
.	2A/	.	.
=8	=8	=8	=8
0r	1D	1d	0r
.	[1A	1c	.
=9	=9	=9	=9
0r	2A/]	0B	0r
.	4G#i/	.	.
.	4F#i/	.	.
.	2G#i/	.	.
.	4A/	.	.
.	4G#i/	.	.
=10	=10	=10	=10
0AA	1A	1.A	0e
.	[1c	.	.
.	.	4G/	.
.	.	4F/	.
=11	=11	=11	=11
1AA	2c\]	[0E	1e
.	4B\	.	.
.	4A/	.	.
1AA	2A/	.	1e
.	[2c\	.	.
=12	=12	=12	=12
1.C	2c\]	0E]	1.e
.	4B\	.	.
.	4A/	.	.
.	1G	.	.
2D\	.	.	4d/
.	.	.	4c/
=13	=13	=13	=13
0E	1r	0r	1B
.	1G	.	1B
=14	=14	=14	=14
1r	1A	0r	1c
1E	1G	.	2B/
.	.	.	[2c/
=15	=15	=15	=15
1.F	1.A	0r	2c/]
.	.	.	4B/
.	.	.	4A/
.	.	.	2.d/
2E\	2G/	.	.
.	.	.	4c/
=16	=16	=16	=16
1D	1F	0r	2B/
.	.	.	2A/
1C	1E	.	[1A
=17	=17	=17	=17
2.BB/	1.D	0r	2A/]
.	.	.	4G#i/
4AA/	.	.	4F#i/
1BB	.	.	2G#i/
.	4E/	.	4F#i/
.	4D/	.	4G#i/
=18	=18	=18	=18
[0AA	1E	[0A	0A
.	1A	.	.
=19	=19	=19	=19
0AA]	1c	1A]	1r
.	2.c\	1F	1A
.	4d\	.	.
=20	=20	=20	=20
1r	0e	0E	1.c
1AA	.	.	.
.	.	.	2d/
=21	=21	=21	=21
1C	1r	0r	0e
2.C/	[1E	.	.
4D\	.	.	.
=22	=22	=22	=22
0E	2E/]	1r	1e
.	2F/	.	.
.	1G	1E	1e
=23	=23	=23	=23
1r	1A	1F	1c
1B	1E	1G	1B
=24	=24	=24	=24
1.c	1r	0A	1A
.	[1e	.	[1c
2B\	.	.	.
=25	=25	=25	=25
1A	2e\]	0r	2c/]
.	2f\	.	2A/
1G	1g	.	2B/
.	.	.	[2d/
=26	=26	=26	=26
2.F\	1a	0d	2d/]
.	.	.	2c/
4E\	.	.	.
1F	1a	.	2.A/
.	.	.	4B/
=27	=27	=27	=27
[0E	1g	0e	2c/
.	.	.	2B/
.	2r	.	2c/
.	[2g\	.	2B/
=28	=28	=28	=28
0E]	4g\]	2.g\	0e
.	4f\	.	.
.	2.e\	.	.
.	.	4a\	.
.	.	2b\	.
.	4d\	.	.
.	4c\	[2cc\	.
.	4B\	.	.
=29	=29	=29	=29
1r	2A/	4cc\]	1e
.	.	4b\	.
.	2c\	2a\	.
1E	1B	2.g#i\	1e
.	.	4f#i\	.
=30	=30	=30	=30
1.A	2r	1a	1.c
.	2A/	.	.
.	2c\	[1e	.
2A\	2d\	.	4B/
.	.	.	4A/
=31	=31	=31	=31
1A	2e\	2e\]	1c
.	2f\	4d\	.
.	.	4c\	.
1G	1g	1B	2r
.	.	.	2G/
=32	=32	=32	=32
2.F\	1c	1.A	2A/
.	.	.	2.c/
4E\	.	.	.
1D	1d	.	.
.	.	.	4B/
.	.	4G/	4B/
.	.	4F/	4A/
=33	=33	=33	=33
[0C	1G	1E	[0c
.	[1g	1E	.
=34	=34	=34	=34
0C]	2g\]	1e	1c]
.	4f\	.	.
.	4e\	.	.
.	[1e	1g	1G
=35	=35	=35	=35
1r	2e\]	0f	1.A
.	4d\	.	.
.	4c\	.	.
1D	1d	.	.
.	.	.	2B/
=36	=36	=36	=36
1.A	2e\	0e	1.c
.	2A/	.	.
.	2.c\	.	.
2A\	.	.	4B/
.	4d\	.	4A/
=37	=37	=37	=37
2A\	4e\	1r	2c/
.	4f\	.	.
2G\	2g\	.	2B/
2A\	2e\	1e	2.c/
[2E\	[2g\	.	.
.	.	.	4B/
=38	=38	=38	=38
2E\]	2g\]	0B	2G/
4D\	4f\	.	2.A/
4C/	4e\	.	.
4BB/	1d	.	.
4AA/	.	.	4G#i/
2BB/	.	.	2G#i/
=39	=39	=39	=39
0AA	2c\	1c	1A
.	2A/	.	.
.	1e	[1A	2r
.	.	.	2cc\
=40	=40	=40	=40
0r	2r	2A/]	2cc\
.	2e\	2E/	2b\
.	2e\	2A/	2cc\
.	2e\	2G/	[2b\
=41	=41	=41	=41
0r	2.c\	2.A/	4b\]
.	.	.	4a/
.	.	.	2.a/
.	4d\	4B\	.
.	1B	1E	.
.	.	.	4g#i/
.	.	.	4g#i/
.	.	.	4f#i/
=42	=42	=42	=42
2r	2.A/	1.e	0a
2AA/	.	.	.
.	4B\	.	.
2.A\	2c\	.	.
.	2A/	2f\	.
4A\	.	.	.
=43	=43	=43	=43
2G\	2B\	1g	0r
2E\	2c\	.	.
1F	1A	1a	.
=44	=44	=44	=44
0E	1B	1.g	1r
.	2r	.	1b
.	2G/	[2e\	.
=45	=45	=45	=45
2r	2.A/	1e]	1cc
2AA/	.	.	.
.	4B\	.	.
2.A\	2c\	1c	1cc
.	2A/	.	.
4A\	.	.	.
=46	=46	=46	=46
2G\	2B\	1e	2b\
2E\	2c\	.	2g/
[1F	2.A/	1d	[1a
.	4G/	.	.
=47	=47	=47	=47
1F]	4A/	0c	1a]
.	4B\	.	.
.	1c	.	.
1E	.	.	1g
.	2G/	.	.
=48	=48	=48	=48
1r	1d	0f	1r
1D	1d	.	1a
=49	=49	=49	=49
1.A	1c	1e	1cc
.	1A	1c	1cc
2A\	.	.	.
=50	=50	=50	=50
2G\	2B\	1r	2b\
2E\	2c\	.	2g/
1F	2.A/	1d	1a
.	4B\	.	.
=51	=51	=51	=51
1E	4c\	0e	1g
.	4B\	.	.
.	2.c\	.	.
1AA	.	.	1e
.	4B\	.	.
.	4A/	.	.
.	4G/	.	.
=52	=52	=52	=52
1.D	1F	1d	0f
.	2r	1B	.
2D\	2F/	.	.
=53	=53	=53	=53
2C/	2G/	[0c	0e
2AA/	2A/	.	.
2.C/	1E	.	.
4D\	.	.	.
=54	=54	=54	=54
4E\	0r	1c]	2e/
4AA/	.	.	.
2.A\	.	.	2c/
.	.	1B	1d
4G#i\	.	.	.
4G#i\	.	.	.
4F#i\	.	.	.
=55	=55	=55	=55
0A	0A	1r	1.c
.	.	[1c	.
.	.	.	4B/
.	.	.	4A/
=56	=56	=56	=56
0AA	1A	0c_	0e
.	1A	.	.
=57	=57	=57	=57
1AA	1.c	1c]	1r
1AA	.	1A	1e
.	2d\	.	.
=58	=58	=58	=58
1.C	2e\	0E	1e
.	2f\	.	.
.	1g	.	1e
2D\	.	.	.
=59	=59	=59	=59
0E	4G/	0r	0g
.	4A/	.	.
.	4B\	.	.
.	4c\	.	.
.	2B\	.	.
.	[2c\	.	.
=60	=60	=60	=60
1r	2c\]	0E	1r
.	4B\	.	.
.	4A/	.	.
1E	1B	.	1g
=61	=61	=61	=61
1.F	2r	[0A	1.a
.	2A/	.	.
.	2.c\	.	.
2E\	.	.	2g/
.	4c\	.	.
=62	=62	=62	=62
2D\	2d\	0A_	2f/
2C/	2e\	.	2e/
1D	1f	.	1d
=63	=63	=63	=63
0AA	2e\	0A]	2c/
.	4A/	.	1cc
.	4B\	.	.
.	4c\	.	.
.	4d\	.	.
.	[2e\	.	2b\
=64	=64	=64	=64
0r	2e\]	1F	1a
.	2d\	.	.
.	2e\	1E	2g/
.	2c\	.	[2g/
=65	=65	=65	=65
1E	1B	0G	2g/]
.	.	.	4f/
.	.	.	4e/
[1G	1r	.	[1d
=66	=66	=66	=66
2G\]	1B	0B	2d/]
4F\	.	.	2e/
4E\	.	.	.
2D\	[1d	.	2f/
2E\	.	.	2g/
=67	=67	=67	=67
2F\	2d\]	0A	2a/
2G\	4c\	.	2b\
.	4B\	.	.
[1A	2A/	.	[1cc
.	2B\	.	.
=68	=68	=68	=68
1A]	2c\	0e	2cc\]
.	2d\	.	4b\
.	.	.	4a/
1E	2e\	.	1g
.	[2E/	.	.
=69	=69	=69	=69
2r	4E/]	0B	1r
.	4F/	.	.
2E\	2G/	.	.
2G\	2E/	.	[1g
2E\	[2G/	.	.
=70	=70	=70	=70
2.G\	4G/]	[0El	1g]
.	4A/	.	.
.	2B\	.	.
4A\	.	.	.
2B\	2E/	.	1g
2E\	[2B\	.	.
=71	=71	=71	=71
2r	4B\]	0E_	1g
.	4G/	.	.
2C/	2c\	.	.
2G\	2B\	.	1g
2C/	[2e\	.	.
=72	=72	=72	=72
2.E\	4e\]	0E_	1.g
.	4d\	.	.
.	2c\	.	.
4F\	.	.	.
2G\	2B\	.	.
2C/	2c\	.	4f/
.	.	.	4e/
=73	=73	=73	=73
2r	2G/	0E_	2e/
2AA/	2A/	.	2cc\
2E\	2E/	.	2b\
2AA/	[2e\	.	[2cc\
=74	=74	=74	=74
2.C/	4e\]	0E_	2cc\]
.	4d\	.	.
.	2c\	.	4b\
4D\	.	.	4a/
2E\	2B\	.	2g/
2AA/	2A/	.	2cc\
=75	=75	=75	=75
2r	2e\	0E_	2b\
2AA/	2e\	.	2cc\
2E\	2e\	.	2b\
2AA/	[2e\	.	[2cc\
=76	=76	=76	=76
2.C/	4e\]	0E_	4cc\]
.	4d\	.	4b\
.	2c\	.	2.a/
4D\	.	.	.
1E	1B	.	.
.	.	.	4g#i/
.	.	.	4g#i/
.	.	.	4f#i/
=77	=77	=77	=77
0AAl	0Al	0E]	0al
==	==	==	==
*-	*-	*-	*-
!!!RDF**kern: V=start of tuplet marker
!!!RDF**kern: Z=end of tuplet marker
!!!RDF**kern: l=long note in original notation
!!!RDF**kern: i=editorial accidental
!!!SMS: Picker 1981
!!!ENC: Will Watson 23/10/2011
!!!END: 2011/10/23/
!!!EED: Jesse Rodin
!!!EEV: 2015/09/09/
!!attribution-level@Jos: 3 (tricky)
!!!ONB: Translated from MusicXML and edited on 2011/11/02/ by Craig Sapp
!!muse2ps:  C^@{COA}?\n@{SCT}^v90,100,90,150I150Q16
